X:1
T: Miss Grant of Cullen House's Reel
C:William Marshall
R:Reel
Q: 232
K:F
M:4/4
L:1/8
|:F|cd cB Ac fe|dc BA GA Bd|cd cB Ac ag|fd cA F2 FF|
cd cB Ac fe|dc BA GA Bd|cd cB Ac ag|fd cA F2 FB|
Ac Fc Ac FA|GA Bc dc df|Ac Fc Ac FA|BG cE F2 FB|
Ac Fc Ac FA|GA Bc dc de|fa ge fd cA|BG cE F2 F:|
